build/img/sprites/HandCoins.svg

<svg width="49" height="49" viewBox="0 0 49 49" fill="none" xmlns="http://www.w3.org/2000/svg">
<g clip-path="url(#clip0_2220_27437)">
<path d="M44.0866 26.9998C43.5168 26.5614 42.8536 26.2603 42.1485 26.1198C41.4434 25.9794 40.7154 26.0035 40.0211 26.1901L32.0127 28.0314C32.199 27.2444 32.2048 26.4253 32.0295 25.6357C31.8543 24.8461 31.5026 24.1064 31.0008 23.472C30.499 22.8377 29.8602 22.3251 29.1321 21.9727C28.4041 21.6204 27.6057 21.4374 26.7969 21.4375H17.2151C16.4104 21.4355 15.6133 21.5929 14.8698 21.9008C14.1264 22.2086 13.4513 22.6607 12.8836 23.231L8.55394 27.5625H3.0625C2.25027 27.5625 1.47132 27.8852 0.896986 28.4595C0.322655 29.0338 0 29.8128 0 30.625L0 38.2813C0 39.0935 0.322655 39.8724 0.896986 40.4468C1.47132 41.0211 2.25027 41.3438 3.0625 41.3438H22.9688C23.0939 41.3438 23.2187 41.3284 23.3401 41.2978L35.5901 38.2353C35.6682 38.2167 35.7444 38.1911 35.8179 38.1588L43.2578 34.9929L43.342 34.9546C44.0571 34.5973 44.6694 34.0639 45.1213 33.4045C45.5732 32.7452 45.8498 31.9817 45.925 31.1859C46.0003 30.3901 45.8717 29.5882 45.5514 28.8559C45.2311 28.1235 44.7296 27.4848 44.0943 26.9998H44.0866ZM3.0625 30.625H7.65625V38.2813H3.0625V30.625ZM42.0003 32.1964L34.7268 35.2934L22.7773 38.2813H10.7188V29.7273L15.0503 25.3977C15.3336 25.1121 15.6709 24.8856 16.0426 24.7315C16.4142 24.5774 16.8128 24.4987 17.2151 24.5H26.7969C27.406 24.5 27.9903 24.742 28.421 25.1727C28.8518 25.6035 29.0938 26.1877 29.0938 26.7969C29.0938 27.406 28.8518 27.9903 28.421 28.421C27.9903 28.8518 27.406 29.0938 26.7969 29.0938H21.4375C21.0314 29.0938 20.6419 29.2551 20.3547 29.5422C20.0676 29.8294 19.9062 30.2189 19.9062 30.625C19.9062 31.0311 20.0676 31.4206 20.3547 31.7078C20.6419 31.9949 21.0314 32.1563 21.4375 32.1563H27.5625C27.6778 32.1559 27.7926 32.1431 27.9051 32.118L40.7293 29.1684L40.7887 29.1531C41.1802 29.0444 41.598 29.0843 41.9618 29.2652C42.3256 29.4461 42.6097 29.7551 42.7593 30.1328C42.909 30.5106 42.9137 30.9303 42.7725 31.3112C42.6313 31.6922 42.3542 32.0075 41.9945 32.1964H42.0003ZM31.3906 18.375C31.7689 18.3754 32.1466 18.3447 32.5199 18.2831C32.9398 19.5302 33.7079 20.631 34.7336 21.4554C35.7592 22.2798 36.9995 22.7932 38.3077 22.935C39.6159 23.0769 40.9374 22.8411 42.1159 22.2557C43.2943 21.6703 44.2806 20.7597 44.9579 19.6316C45.6353 18.5034 45.9755 17.2049 45.9383 15.8896C45.901 14.5742 45.4879 13.2971 44.7479 12.209C44.0078 11.121 42.9716 10.2677 41.7619 9.74984C40.5522 9.23204 39.2195 9.07144 37.9214 9.28703C37.5171 8.08547 36.7892 7.01873 35.8178 6.2042C34.8463 5.38967 33.669 4.85893 32.4153 4.67039C31.1617 4.48184 29.8803 4.6428 28.7122 5.13556C27.5442 5.62831 26.5347 6.43375 25.7949 7.46325C25.0551 8.49274 24.6136 9.70638 24.5191 10.9706C24.4246 12.2348 24.6806 13.5006 25.2591 14.6287C25.8376 15.7567 26.7161 16.7033 27.7979 17.3643C28.8797 18.0253 30.1229 18.375 31.3906 18.375ZM42.875 16.0781C42.875 16.8353 42.6505 17.5754 42.2298 18.2049C41.8092 18.8345 41.2113 19.3251 40.5118 19.6149C39.8123 19.9046 39.0426 19.9804 38.3 19.8327C37.5575 19.685 36.8754 19.3204 36.34 18.785C35.8046 18.2496 35.44 17.5675 35.2923 16.825C35.1446 16.0824 35.2204 15.3127 35.5102 14.6132C35.7999 13.9137 36.2906 13.3158 36.9201 12.8952C37.5496 12.4745 38.2897 12.25 39.0469 12.25C40.0622 12.25 41.0359 12.6533 41.7538 13.3712C42.4717 14.0891 42.875 15.0628 42.875 16.0781ZM31.3906 7.65625C32.2257 7.65667 33.0378 7.93017 33.703 8.43504C34.3683 8.93992 34.8501 9.64848 35.0752 10.4527C34.2909 11.0045 33.6305 11.7139 33.1361 12.5356C32.6417 13.3573 32.3243 14.2731 32.2041 15.2245C31.9368 15.2822 31.6641 15.3117 31.3906 15.3125C30.3753 15.3125 29.4016 14.9092 28.6837 14.1913C27.9658 13.4734 27.5625 12.4997 27.5625 11.4844C27.5625 10.4691 27.9658 9.4954 28.6837 8.77748C29.4016 8.05957 30.3753 7.65625 31.3906 7.65625Z" fill="#4988D1"/>
</g>
<defs>
<clipPath id="clip0_2220_27437">
<rect width="49" height="49" fill="white"/>
</clipPath>
</defs>
</svg>

<svg width="49" height="49" viewBox="0 0 49 49" fill="none" xmlns="http://www.w3.org/2000/svg"><g clip-path="url(#clip0_2220_27437)"><path d="M44.087 27a4.677 4.677 0 00-4.066-.81l-8.008 1.841a5.359 5.359 0 00-5.216-6.593h-9.582a6.09 6.09 0 00-4.331 1.793l-4.33 4.331H3.062A3.063 3.063 0 000 30.625v7.656a3.063 3.063 0 003.063 3.063h19.906c.125 0 .25-.016.371-.046l12.25-3.063c.078-.018.154-.044.228-.076l7.44-3.166.084-.038A4.708 4.708 0 0044.094 27h-.007zM3.062 30.625h4.594v7.656H3.063v-7.656zM42 32.196l-7.273 3.097-11.95 2.988H10.72v-8.554l4.331-4.33a3.035 3.035 0 012.165-.897h9.582a2.297 2.297 0 010 4.594h-5.36a1.532 1.532 0 000 3.062h6.125c.116 0 .23-.013.343-.038l12.824-2.95.06-.015a1.646 1.646 0 011.206 3.043H42zM31.39 18.375c.379 0 .757-.03 1.13-.092a6.89 6.89 0 105.401-8.996 6.891 6.891 0 10-6.53 9.088zm11.485-2.297a3.827 3.827 0 11-7.655 0 3.827 3.827 0 017.655 0zM31.391 7.656a3.828 3.828 0 013.684 2.797 6.89 6.89 0 00-2.87 4.772 3.828 3.828 0 11-.813-7.568z" fill="#4988D1"/></g><defs><clipPath id="clip0_2220_27437"><path fill="#fff" d="M0 0h49v49H0z"/></clipPath></defs></svg>
